packages/ffe-icons/icons/filled/md/equalizer.svg

<svg xmlns="http://www.w3.org/2000/svg" height="24" viewBox="0 -960 960 960" width="24"><path d="M250.001-180.001q-29.154 0-49.577-20.423t-20.423-49.577v-136.152q0-29.153 20.423-49.576 20.423-20.423 49.577-20.423 29.153 0 49.576 20.423Q320-415.306 320-386.153v136.152q0 29.154-20.423 49.577t-49.576 20.423Zm229.999 0q-29.154 0-49.576-20.423-20.423-20.423-20.423-49.577v-459.998q0-29.154 20.423-49.577 20.422-20.423 49.576-20.423t49.576 20.423q20.423 20.423 20.423 49.577v459.998q0 29.154-20.423 49.577-20.422 20.423-49.576 20.423Zm229.999 0q-29.153 0-49.576-20.423Q640-220.847 640-250.001v-263.845q0-29.153 20.423-49.576 20.423-20.423 49.576-20.423 29.154 0 49.577 20.423t20.423 49.576v263.845q0 29.154-20.423 49.577t-49.577 20.423Z"/></svg>

<svg xmlns="http://www.w3.org/2000/svg" height="24" viewBox="0 -960 960 960" width="24"><path d="M250-180q-29.15 0-49.58-20.42Q180-220.85 180-250v-136.15q0-29.16 20.42-49.58 20.43-20.42 49.58-20.42t49.58 20.42Q320-415.31 320-386.15V-250q0 29.15-20.42 49.58Q279.15-180 250-180Zm230 0q-29.15 0-49.58-20.42Q410-220.85 410-250v-460q0-29.15 20.42-49.58Q450.85-780 480-780t49.58 20.42Q550-739.15 550-710v460q0 29.15-20.42 49.58Q509.15-180 480-180Zm230 0q-29.15 0-49.58-20.42Q640-220.85 640-250v-263.85q0-29.15 20.42-49.57 20.43-20.42 49.58-20.42t49.58 20.42Q780-543 780-513.85V-250q0 29.15-20.42 49.58Q739.15-180 710-180Z"/></svg>
